outputs/icons/date_time/meal_round.svg

<svg xmlns="http://www.w3.org/2000/svg" width="1200" height="1200" fill="none"><path fill="#000" d="M550 450H450V150c0-27.614-22.386-50-50-50s-50 22.386-50 50v300H250V150c0-27.614-22.386-50-50-50s-50 22.386-50 50v300c0 106 83 192 187.5 198.5v389c0 34.52 27.982 62.5 62.5 62.5s62.5-27.98 62.5-62.5v-389C567 642 650 556 650 450V150c0-27.614-22.385-50-50-50s-50 22.386-50 50zm250-150v387.5c0 6.905 5.595 12.5 12.5 12.5H925v337.5c0 34.52 27.98 62.5 62.5 62.5s62.5-27.98 62.5-62.5v-925c0-6.903-5.605-12.531-12.5-12.194C905.3 106.78 800 214.673 800 300"/></svg>

<svg width="1200" height="1200" viewBox="0 0 1200 1200" fill="none" xmlns="http://www.w3.org/2000/svg"><path d="M550 450H450V150C450 122.386 427.614 100 400 100C372.386 100 350 122.386 350 150V450H250V150C250 122.386 227.614 100 200 100C172.386 100 150 122.386 150 150V450C150 556 233 642 337.5 648.5V1037.5C337.5 1072.02 365.482 1100 400 1100C434.518 1100 462.5 1072.02 462.5 1037.5V648.5C567 642 650 556 650 450V150C650 122.386 627.615 100 600 100C572.385 100 550 122.386 550 150V450ZM800 300V687.5C800 694.405 805.595 700 812.5 700H925V1037.5C925 1072.02 952.98 1100 987.5 1100C1022.02 1100 1050 1072.02 1050 1037.5V112.5C1050 105.597 1044.395 99.969 1037.5 100.306C905.3 106.78 800 214.673 800 300Z" fill="#1D1E23"/></svg>
